X:0480
T:Niven's Scots Measure, or Mary's Dream.
M:C|
L:1/8
Q:1/2=104
I: :: ::
Z:Jack Campin * www.campin.me.uk * 2009
K:G Minor
Tdc|B2G2   G2 Bc |dcdf   dcBc|(B/c/d)G2 G2Bc|   dcBG F2 dc |
    B2G2   G2 FG |B3 c   d2cB| cdfg     dgcd|   B2   G2 G2::
 df|g3f    d2 cB |c2 d2  g3 a| bgfd     fdcB|   cBcd    F3B|
    G>FG>A B>AB>G|c>Bc>d edcB| cdfg     dfcd|{c}B2{A}G2 G2:|

